image/buisnes-icon4.svg

<svg width="64" height="64" viewBox="0 0 64 64" fill="none" xmlns="http://www.w3.org/2000/svg">
<path fill-rule="evenodd" clip-rule="evenodd" d="M27.137 6C25.5428 6 24.0405 6.71118 22.9522 7.93155C21.8673 9.14818 21.2743 10.7761 21.2743 12.4529V19.3844H8.65855C5.01449 19.3844 1.82324 21.9925 1.82324 25.4832V50.9773C1.82324 54.4681 5.01449 57.0762 8.65855 57.0762H55.341C58.985 57.0762 62.1763 54.4681 62.1763 50.9773V25.4832C62.1763 21.9925 58.985 19.3844 55.341 19.3844H42.7252V12.4529C42.7252 10.7761 42.1322 9.14818 41.0473 7.93155C39.959 6.71118 38.4568 6 36.8625 6H27.137ZM40.7252 19.3844V12.4529C40.7252 11.2373 40.2935 10.0913 39.5546 9.26268C38.819 8.43782 37.8476 8 36.8625 8H27.137C26.1519 8 25.1805 8.43782 24.4449 9.26268C23.706 10.0913 23.2743 11.2373 23.2743 12.4529V19.3844H40.7252ZM22.2743 21.3844H41.7252H55.341C58.1424 21.3844 60.1763 23.342 60.1763 25.4832V50.9773C60.1763 53.1186 58.1424 55.0762 55.341 55.0762H8.65855C5.8571 55.0762 3.82324 53.1186 3.82324 50.9773V25.4832C3.82324 23.342 5.8571 21.3844 8.65855 21.3844H22.2743ZM49.7783 26.4254C50.1379 26.8446 50.0896 27.4759 49.6704 27.8355L26.2685 47.9123C25.8939 48.2337 25.3408 48.2337 24.9662 47.9123L14.329 38.7865C13.9098 38.4269 13.8615 37.7955 14.2211 37.3764C14.5807 36.9572 15.2121 36.9089 15.6312 37.2685L25.6173 45.8357L48.3682 26.3176C48.7873 25.958 49.4186 26.0062 49.7783 26.4254Z" fill="#E03D3B"/>
</svg>

<?xml version="1.0" encoding="UTF-8" standalone="no"?>
<svg width="64" xmlns="http://www.w3.org/2000/svg" fill="none" viewBox="0 0 64 64" height="64">
 <path fill="#E03D3B" clip-rule="evenodd" d="m27.137 6c-1.594 0-3.097 0.7112-4.185 1.9316-1.085 1.2166-1.678 2.8444-1.678 4.5214v6.931h-12.615c-3.6445 0-6.8358 2.608-6.8358 6.099v25.494c0 3.491 3.1913 6.099 6.8354 6.099h46.682c3.644 0 6.835-2.608 6.835-6.099v-25.494c0-3.491-3.191-6.099-6.835-6.099h-12.616v-6.931c0-1.677-0.593-3.3048-1.678-4.5214-1.088-1.2204-2.59-1.9316-4.185-1.9316h-9.725zm13.588 13.384v-6.931c0-1.216-0.431-2.362-1.17-3.1903-0.736-0.8249-1.707-1.2627-2.693-1.2627h-9.725c-0.985 0-1.957 0.4378-2.692 1.2627-0.739 0.8283-1.171 1.9743-1.171 3.1903v6.931h17.451zm-18.451 2h33.067c2.801 0 4.835 1.958 4.835 4.099v25.494c0 2.142-2.034 4.099-4.835 4.099h-46.682c-2.8019 0-4.8358-1.957-4.8358-4.099v-25.494c0-2.141 2.0339-4.099 4.8354-4.099h13.615zm27.504 5.041c0.36 0.42 0.312 1.051-0.108 1.411l-23.402 20.076c-0.374 0.322-0.927 0.322-1.302 0l-10.637-9.126c-0.419-0.359-0.467-0.99-0.108-1.41 0.36-0.419 0.991-0.467 1.41-0.108l9.986 8.568 22.751-19.518c0.419-0.36 1.051-0.312 1.41 0.107z" fill-rule="evenodd"/>
</svg>
